X: 1
M: 3/4
L: 1/8
K: G
(Bc |\
"G"d2) B2 B2 | B2 c2 (d2 | "Am"e2) A2 A2 | A4 (AG) |\
"D7"F2 A2 (c2 | e2) d2 (d2 | "G"c2) B2 B2 | B4 Bc |
"G"d2 B2 B2 | B2 c2 (d2 | "Am"e2) A2 A2 | A4 (AG) |\
"D7"F2 A2 (c2 | e2) d2 F2 | "G"G4 GG | G4 Bc ||
"G"(dB) (dB) (dB) | (dB) (dB) (dB) | "G"d2 b2 b2 | b2 a2 g2 |\
"D7"f2 a2 a2 | a2 g2 f2 | "G"d2 g2 g2 | g4 Bc |
"G"(dB) (dB) (dB) | (dB) (dB) (dB) | "G"d2 b2 b2 | b2 a2 g2 |\
"D7"f2 a2 (a2 | e'2) e2 f2 | "G"g3 g g2 | g4 |]
